X:1
T:Ishmael, SMD
T:Ishmael, SMD
T:Charles Vincent, 1913
T:Public Domain Courtesy of the Cyber Hymnal™
C:Charles Vincent, 1913
Z:Public Domain
Z:Courtesy of the Cyber Hymnal™
%%score ( 1 2 ) ( 3 4 )
L:1/8
Q:1/4=112
M:4/4
K:C
V:1 treble 
V:2 treble 
V:3 bass 
V:4 bass 
V:1
 G2 | c2 B2 A2 [^D^FB]2 | G6 [B,F]2 | [CE]2 [B,F]2 [CG]2 [CFA]2 | D6 [B,D]2 | %5
 [CE]2 [D^F]2 [DG]2 [EG]2 | [EA]2 [^FA]2 [GB]2 [Gc]2 | d2 [Ee]2 [DA]2 [CA]2 | [B,G]6 [FG]2 | %9
 e2 [Gd]2 [Ac]2 [=Fd]2 | B6 z2 (AB) | [Gc]2 A2 [DG]2 (FE) | [DF]6 [DG]2 | %13
 [CE]2 [DA]2 [EG]2 [^Fc]2 | [GB]2 [Gd]2 [Gc]2 [^Ge]2 | [Ae]2 [Ad]2 [Gc]2 [FB]2 | [Ec]6 |] %17
V:2
 G2 | c2 B2 A2 x2 | (E2 D2 C2) x2 | x8 | (C2 A,2 B,2) x2 | x8 | x8 | (G^F) x6 | x8 | (E^F) x6 | %10
 (G2 D2) G4 x2 | x2 (FE) x C2 x | x8 | x8 | x8 | x8 | x6 |] %17
V:3
 G,2 | C2 B,2 A,2 [B,,B,]2 | ([E,B,]2 [F,B,]2 [E,G,]2) [D,G,]2 | G,6 x2 | G,6 G,2 | %5
 [C,G,]2 [C,A,]2 [B,,B,]2 [E,B,]2 | [C,C]2 [C,C]2 [G,B,]2 [E,G,]2 | %7
 [B,,G,]2 [C,G,]2 [D,G,]2 [D,^F,]2 | [G,,G,]6 [G,B,]2 | C2 [B,D]2 [A,E]2 [A,C]2 | %10
 [G,D]6 [F,D]2 x2 | [E,C]2 [F,C]2 [G,B,]2 A,2 | [D,A,]6 [B,,G,]2 | (G,A,) [F,B,]2 [E,C]2 [D,D]2 | %14
 [E,D]2 [F,B,]2 [E,C]2 [D,B,]2 | [C,C]2 [F,D]2 [G,E]2 [G,D]2 | [C,C]6 |] %17
V:4
 G,2 | C2 B,2 A,2 x2 | x8 | C,2 D,2 E,2 F,2 | G,6 G,2 | x8 | x8 | x8 | x8 | C2 x6 | x10 | x6 A,2 | %12
 x8 | C,2 x6 | x8 | x8 | x6 |] %17

